!!!COM: MacDowell, Edward
!!!CDT: 1860/12/18/-1908/01/23/
!!!OPR: 12 Etudes
!!!ODT: 1889///-1890///
!!!OTL: Alla tarantella
!!!OPS: Op. 39
!!!ONM: No. 2
!!!OMD: Prestissimo
**kern	**kern	**dynam
*staff2	*staff1	*staff1/2
*Ipiano	*Ipiano	*Ipiano
*clefG2	*clefG2	*clefG2
*k[b-e-a-]	*k[b-e-a-]	*k[b-e-a-]
*M6/8	*M6/8	*M6/8
*MM220	*MM220	*MM220
=1-	=1-	=1-
8c/ 8e-/ 8g/	(8ee-\L	.
8r	8dd\	.
8r	8cc\J)	.
8c/ 8f/ 8g/	(8dd\L	.
8r	8cc\	.
8r	8bn\J)	.
=2	=2	=2
8c/ 8d/ 8g/	(8ff\L	.
8r	8ee-\	.
8r	8dd\J)	.
8c/ 8e-/ 8g/	(8ee-\L	.
8r	8dd\	.
8r	8cc\J)	.
=3	=3	=3
8e-/ 8g/	(8gg\L	.
8r	8ff\	.
8r	8ee-\J)	.
8f/ 8a-/	(8dd\L	.
8r	8cc\	.
8r	8dd\J)	.
=4	=4	=4
8f#/ 8an/	(8ee-\L	.
8r	8ff\	.
8r	8ee-\J)	.
(8bn/L	4.dd\	.
8a/	.	.
8g/J	.	.
=5	=5	=5
8fn'/) 8a-'/	8dd\L	.
8r	8ee-\	.
8r	8ff\J	.
8e-/ 8g/ 8cc/	&(8gg\&)	.
8r	8r	.
8r	8ccc\	.
=6	=6	=6
8d/ 8f/ 8b-/	(8bb-\L	.
8r	8ccc\	.
8r	8bb-\J	.
8c/ 8e-/ 8a-/	4ee-\)	.
8r	.	.
8r	8r	.
=7	=7	=7
8Bn/ 8d/ 8a-/	(8aa-\L	.
8r	8gg\	.
8r	8ff\J)	.
8c/ 8e-/ 8g/	(8gg\L	.
8r	8ff\	.
8r	8ee-\J)	.
=8	=8	=8
8G/ 8Bn/ 8f/	(8ff\L	.
8r	8ee-\	.
8r	8dd\J	.
4A-/ 4c/ 4e-/	4cc\)	.
8r	8r	.
*clefF4	*	*
=9	=9	=9
(8A-\L	(8a-/L	ff
8G\	8g/	.
8F\J)	8f/J)	.
(8G\L	(8g/L	.
8F\	8f/	.
8E-\J)	8e-/J)	.
=10	=10	=10
(8F\L	(8f/L	.
8E-\	8e-/	.
8D\J)	8d/J)	.
4C/	4c/	.
8r	8r	.
=11	=11	=11
*^	*	*
8D/	[2.GG\	(8Bn/L	pp
8r	.	8An/	.
8r	.	8G/J)	.
(4.E-^/	.	(8c/L	.
.	.	8B-/	.
.	.	8A-/J)	.
=12	=12	=12	=12
8D/)	2.GG\_	8Bn/L	.
8r	.	8An/	.
8r	.	&(8G/J&)	.
(4.E-^/	.	8c/L	.
.	.	8B-/	.
.	.	&(8A-/J&)	.
=13	=13	=13	=13
8D/)	2.GG\_	8Bn/L	.
8r	.	8An/	.
8r	.	&(8G/J&)	.
(4.E-^/	.	8c/L	.
.	.	8B-/	.
.	.	&(8A-/J&)	.
=14	=14	=14	=14
8D/)	2.GG\]	8Bn/L	.
8r	.	8An/	.
8r	.	&(8G/J&)	.
(4.F^/	.	8B/L	.
.	.	8c/	.
.	.	&(8d/J&)	.
*v	*v	*	*
=15	=15	=15
8C\ 8E-\)	8e-/L	p
8r	8d/	.
8r	&(8c/J&)	.
8C\ 8F\ 8G\	8d/L	.
8r	8c/	.
8r	&(8Bn/J&)	.
=16	=16	=16
8C\ 8D\ 8G\	(8f/L	.
8r	8e-/	.
8r	8d/J)	.
8C\ 8E-\ 8G\	(8e-/L	.
8r	8d/	.
8r	8c/J)	.
=17	=17	=17
8E-\ 8G\	(8g/L	.
8r	8f/	.
8r	8e-/J)	.
8F\ 8A-\	(8d/L	.
8r	8c/	.
8r	8d/J)	.
=18	=18	=18
8F#\ 8An\	(8e-/L	.
8r	8f/	.
8r	8e-/J)	.
(8Bn\L	4.d/	.
8A\	.	.
8G\J	.	.
=19	=19	=19
8Fn\ 8A-\)	8d/L	.
8r	8e-/	.
8r	8f/J	.
8E-\ 8G\ 8c\	&(8g/&)	.
8r	8r	.
8r	8cc\	.
=20	=20	=20
8D\ 8F\ 8B-\	(8b-\L	.
8r	8cc\	.
8r	8b-\J	.
8C\ 8E-\ 8A-\	4e-/)	.
8r	.	.
8r	8r	.
=21	=21	=21
8BBn\ 8D\ 8A-\	(8a-/L	ff
8r	8g/	.
8r	8f/J)	.
8C\ 8E-\ 8G\	(8g/L	.
8r	8f/	.
8r	8e-/J)	.
=22	=22	=22
8GG/ 8BBn/ 8F/	(8f/L	.
8r	8e-/	.
8r	8d/J)	.
4AA-/ 4C/ 4E-/	4c/	ppp
8r	8r	.
=23	=23	=23
*^	*	*
(8A-/L	8AA-\L	2.r	.
8G/	8GG\	.	.
8F/J)	&(8FF\J&)	.	.
8G/L	(8GG\L	.	.
8F/	8FF\	.	.
8E-/J	8EE-\J)	.	.
=24	=24	=24	=24
(8F/L	8FF\L	2.r	.
8E-/	8EE-\	.	.
8D/J)	8DD\J	.	.
4C/	4CC\	.	.
8r	8r	.	.
*v	*v	*	*
=25	=25	=25
8AA-\ 8E-\	2.r	ff
8r	.	.
8r	.	.
8A-'/ 8c'/ 8e-'/	.	.
8r	.	.
8r	.	.
=26	=26	=26
8AA-'\ 8E-'\	2.r	.
8r	.	.
8r	.	.
8A-'/ 8c'/ 8e-'/	.	.
8r	.	.
8r	.	.
=27	=27	=27
8AA-'\ 8E-'\	2.r	.
8r	.	.
8r	.	.
8A-'/ 8c'/ 8e-'/	.	.
8r	.	.
8r	.	.
=28	=28	=28
8A-'\	2.r	.
8r	.	.
8r	.	.
8c'\ 8e-'\	.	.
8r	.	.
8r	.	.
*	*clefF4	*clefF4
=29	=29	=29
8A-\ 8c\	(8G\L	.
8r	8A-\	.
8r	8G\J	.
8c\ 8e-\	8F\)	.
8r	8r	.
8r	(8G\	.
=30	=30	=30
8A-\ 8c\	8A-\)	pp
8r	8r	.
8r	(8G\	.
8c\ 8e-\	8F\)	.
8r	8r	.
8r	(8A-\	.
=31	=31	=31
8G\ 8d-\	8G\)	.
8r	8r	.
8r	(8F\	.
8d-\ 8e-\	8E-\)	.
8r	8r	.
8r	(8G\	.
=32	=32	=32
8A-\ 8c\	8F\)	.
8r	8r	.
8r	8r	.
8c\ 8e-\	4.E-\	.
8r	.	.
8r	.	.
=33	=33	=33
8G\ 8d-\	(8BB-/L	.
8r	8E-/	.
8r	8BB-/J	.
8d-\ 8e-\	8E-\)	.
8r	8r	.
8r	8r	.
=34	=34	=34
8G\ 8d-\	(8BB-/L	.
8r	8E-/	.
8r	8BB-/J	.
8d-\ 8e-\	8E-\)	.
8r	8r	.
8r	8r	.
=35	=35	=35
8G\	8D-\	.
8r	8r	.
8r	(8C/	.
8d-\ 8en\	8BB-/)	.
8r	8r	.
8r	8C/	.
=36	=36	=36
8F\	2.AA-/	.
8r	.	.
8r	.	.
8A-\ 8c\ 8f\	.	.
8r	.	.
8r	.	.
=37	=37	=37
8F\ 8Bn\ 8d\	(8GG/L	.
8r	8AA-/	.
8r	8GG/J)	.
8F\ 8B\ 8d\	4.AA-^/	.
8r	.	.
8r	.	.
=38	=38	=38
8F\ 8Bn\ 8d\	(8GG/L	.
8r	8AA-/	.
8r	8GG/J)	.
8F\ 8B\ 8d\	4.AA-^/	.
8r	.	.
8r	.	.
=39	=39	=39
8F\ 8Bn\ 8d\	(8GG/L	.
8r	8AA-/	.
8r	8GG/J)	.
8F\ 8B\ 8d\	4.D\	.
8r	.	.
8r	.	.
=40	=40	=40
8F\ 8Bn\ 8d\	(4.GG/	.
8r	.	.
8r	.	.
4r	4.D\)	.
8r	.	.
=41	=41	=41
8CC'/	8C/	.
8r	8r	.
8r	8r	.
.	(Bnq/	.
8CC#'/	8c\)	.
8r	8r	.
8r	8r	.
=42	=42	=42
.	(Bnq/	.
8DD'/	8c\)	.
8r	8r	.
8r	8r	.
.	(Bq/	.
8EE-'/	8c\)	.
8r	8r	.
8r	8r	.
=43	=43	=43
.	(Bnq/	.
8EEn'/	8c\)	.
8r	8r	.
8r	8r	.
.	(Bq/	.
8FF'/	8c\)	.
8r	8r	.
8r	8r	.
=44	=44	=44
.	(Bnq/	.
8FF#'/	8c\)	.
8r	8r	.
8r	8r	.
8GG'/	4r	.
8r	.	.
8r	8r	.
=45	=45	=45
8AA-'/	(8c\L	.
8r	8B-\	.
8r	8A-\J	.
4r	8F\)	p
.	8r	.
8r	(8G\	.
=46	=46	=46
8A-\ 8c\	8A-\)	.
8r	8r	.
8r	(8G\	.
8c\ 8e-\	8F\)	.
8r	8r	.
8r	(8A-\	.
=47	=47	=47
8G\ 8d-\	8G\)	.
8r	8r	.
8r	(8F\	.
8d-\ 8e-\	8E-\)	.
8r	8r	.
8r	(8G\	.
=48	=48	=48
8A-\ 8c\	8F\)	.
8r	8r	.
8r	8r	.
8c\ 8e-\	4.E-\	.
8r	.	.
8r	.	.
=49	=49	=49
8G\ 8d-\	(12BB-/L	.
.	12E-/	.
8r	.	.
.	12BB-/J	.
8r	4E-\)	.
8d-\ 8e-\	.	.
8r	8r	.
8r	8r	.
=50	=50	=50
8G\ 8d-\	(8BB-/L	.
8r	8E-/	.
8r	8BB-/J	.
8d-\ 8e-\	8E-\)	.
8r	8r	.
8r	8r	.
=51	=51	=51
.	(Dq/	.
8G\ 8d-\	8E-'\)	.
8r	8r	.
8r	8r	.
8d-\ 8e-\	8EE-'/	.
8r	8r	.
8r	8r	.
=52	=52	=52
8A-\ 8c\	2.AA-/	.
8r	.	.
8r	.	.
8c\ 8e-\	.	.
8r	.	.
8r	.	.
=53	=53	=53
4r	(2.BB--/	p
8r	.	.
8G-\ 8c\ 8e-\	.	.
8r	.	.
8r	.	.
=54	=54	=54
4r	2.AA-/	.
8r	.	.
8F\ 8Bn\ 8dn\	.	.
8r	.	.
8r	.	.
=55	=55	=55
4r	2.GG/	.
8r	.	.
8En\ 8B-\ 8d\	.	.
8r	.	.
8r	.	.
=56	=56	=56
4r	2.AA-/)	.
8r	.	.
8F\ 8B-\ 8d\	.	.
8r	.	.
8r	.	.
=57	=57	=57
4r	(2.GG/	.
8r	.	.
8En\ 8B-\ 8d\	.	.
8r	.	.
8r	.	.
=58	=58	=58
4r	2.GG-/	.
8r	.	.
8E-\ 8A-\ 8c\	.	.
8r	.	.
8r	.	.
=59	=59	=59
4r	2.FF/	.
8r	.	.
8D\ 8A-\ 8c\	.	.
8r	.	.
8r	.	.
=60	=60	=60
4r	2.FF#/)	.
8r	.	.
8D\ 8An\ 8c\	.	.
8r	.	.
8r	.	.
=61	=61	=61
8D'\ 8G'\ 8Bn'\	(8GG/L	.
8r	8AA-/	.
8r	8AAn/J	.
4r	8BB-/L	.
.	8BBn/	.
8r	8C/J	.
=62	=62	=62
2.r	8C#\L	.
.	8D\	.
.	8E-\J	.
.	8En\L	.
.	8F\	.
.	8F#\J	.
=63	=63	=63
8GG'/	8G\L	.
8r	8A-\	.
8r	8An\J	.
4r	8B-\L	.
.	8Bn\	.
8r	8c\J	.
*	*clefG2	*clefG2
=64	=64	=64
2.r	8c#/L	.
.	8d/	.
.	&(8e-/J&)	.
.	8en/L	.
.	8f/	.
.	8f#/J	.
=65	=65	=65
8G'\	8g/L	.
8r	8a-/	.
8r	8an/J	.
4r	8b-\L	.
.	8bn\	.
8r	8cc\J	.
=66	=66	=66
8d'\	8cc#\L	.
8r	8dd\	.
8r	8ee-\J	.
4r	8een\L	.
.	8ff\	.
8r	8ff#\J	.
=67	=67	=67
8g'\	8gg\L	.
8r	8aa-\	.
8r	8aan\J	.
4r	8bb-\L	.
.	8bbn\	.
8r	8ccc\J	.
*clefG2	*	*
=68	=68	=68
8ff'\ 8gg'\	8ccc#\L	.
8r	8ddd\	.
8r	8eee-\J	.
4r	8fff\L	.
.	8ggg\)	.
8r	8fff\J	.
=69	=69	=69
8cc\ 8ee-\ 8gg\	(8ee-\L	pp
8r	8dd\	.
8r	8cc\J)	.
8cc\ 8ff\ 8gg\	(8dd\L	.
8r	8cc\	.
8r	8bn\J)	.
=70	=70	=70
8cc\ 8dd\ 8gg\	(8ff\L	.
8r	8ee-\	.
8r	8dd\J)	.
8cc\ 8ee-\ 8gg\	(8ee-\L	.
8r	8dd\	.
8r	8cc\J)	.
=71	=71	=71
8ee-\ 8gg\	(8gg\L	.
8r	8ff\	.
8r	8ee-\J)	.
8ff\ 8aa-\	(8dd\L	.
8r	8cc\	.
8r	8dd\J)	.
=72	=72	=72
8ff#\ 8aan\	(8ee-\L	.
8r	8ff\	.
8r	8ee-\J)	.
(8bbn\L	4.dd\	.
8aa\	.	.
8gg\J	.	.
=73	=73	=73
8ffn'\ 8aa-'\)	8dd\L	.
8r	8ee-\	.
8r	8ff\J	.
8ee-\ 8gg\ 8ccc\	&(8gg\&)	.
8r	8r	.
8r	8ccc\	.
=74	=74	=74
8dd\ 8ff\ 8bb-\	(8bb-\L	.
8r	8ccc\	.
8r	8bb-\J	.
8cc\ 8ee-\ 8aa-\	4ee-\)	.
8r	.	.
8r	8r	.
=75	=75	=75
8bn\ 8dd\ 8aa-\	(8aa-\L	.
8r	8gg\	.
8r	8ff\J)	.
8cc\ 8ee-\ 8gg\	(8gg\L	.
8r	8ff\	.
8r	8ee-\J)	.
=76	=76	=76
8g\ 8bn\ 8ff\	(8ff\L	.
8r	8ee-\	.
8r	8dd\J	.
4a-\ 4cc\ 4ee-\	4cc\)	.
8r	8r	.
=77	=77	=77
(8a-/L	(8aa-\L	ff
8g/	8gg\	.
8f/J)	8ff\J)	.
(8g/L	(8gg\L	.
8f/	8ff\	.
8e-/J)	8ee-\J)	.
=78	=78	=78
(8f/L	(8ff\L	.
8e-/	8ee-\	.
8d/J)	8dd\J)	.
4c/	4cc\	.
8r	8r	.
*clefF4	*	*
=79	=79	=79
8G\ 8d\ 8f\	(8bn\L	pp
8r	8cc\	.
8r	8dd\J)	.
8A-^\ 8c^\ 8g-^\	(8ee-^\L	.
8r	8dd\	.
8r	8cc\J)	.
=80	=80	=80
8G\ 8d\ 8f\	(8bn\L	.
8r	8cc\	.
8r	8dd\J)	.
8A-^\ 8c^\ 8g-^\	(8ee-^\L	.
8r	8dd\	.
8r	8cc\J)	.
=81	=81	=81
8G\ 8d\ 8f\	(8bn\L	.
8r	8cc\	.
8r	8dd\J)	.
8A-^\ 8c^\ 8g-^\	(8ee-^\L	.
8r	8dd\	.
8r	8cc\J)	.
=82	=82	=82
8G\ 8d\ 8f\	(8bn\L	.
8r	8cc\	.
8r	8dd\J	.
(8f\L	8gg'\)	.
8e-\	8r	.
8d\J	8r	.
=83	=83	=83
8c'\ 8g'\)	8ee-\L	.
8r	8dd\	.
8r	&(8cc\J&)	.
*clefG2	*	*
8c/ 8f/ 8g/	8dd\L	.
8r	8cc\	.
8r	&(8bn\J&)	.
=84	=84	=84
8c/ 8d/ 8g/	(8ff\L	.
8r	8ee-\	.
8r	8dd\J)	.
8c/ 8e-/ 8g/	(8ee-\L	.
8r	8dd\	.
8r	8cc\J)	.
=85	=85	=85
8e-/ 8g/	(8gg\L	.
8r	8ff\	.
8r	8ee-\J)	.
8f/ 8a-/	(8dd\L	.
8r	8cc\	.
8r	8dd\J)	.
=86	=86	=86
8f#/ 8an/	(8ee-\L	.
8r	8ff\	.
8r	8ee-\J)	.
(8bn/L	4.dd\	.
8a/	.	.
8g/J	.	.
=87	=87	=87
8fn'/) 8a-'/	8dd\L	.
8r	8ee-\	.
8r	8ff\J	.
8e-/ 8g/ 8cc/	&(8gg\&)	.
8r	8r	.
8r	8ccc\	.
=88	=88	=88
8d/ 8f/ 8b-/	(8bb-\L	.
8r	8ccc\	.
8r	8bb-\J)	.
8c/ 8e-/ 8a-/	4ee-\	.
8r	.	.
8r	8r	.
=89	=89	=89
8Bn/ 8d/ 8a-/	(8aa-\L	.
8r	8gg\	.
8r	8ff\J)	.
8c/ 8e-/ 8g/	(8gg\L	.
8r	8ff\	.
8r	8ee-\J)	.
=90	=90	=90
8G/ 8Bn/ 8f/	(8ff\L	.
8r	8ee-\	.
8r	8dd\J)	.
4A-/ 4c/ 4e-/	4cc\	.
8r	8r	.
*clefF4	*	*
=91	=91	=91
(8A-\L	(8a-/L	f
8G\	8g/	.
8F\J)	8f/J)	.
(8G\L	(8g/L	.
8F\	8f/	.
8E-\J)	8e-/J)	.
=92	=92	=92
(8F\L	(8f/L	.
8E-\	8e-/	.
8D\J)	8d/J)	.
4C/	4c/	.
8r	8r	.
*	*clefF4	*clefF4
=93	=93	=93
4r	4r	.
8r	8r	.
8AA-'/	8A-'\	pp
8r	8r	.
8r	8r	.
=94	=94	=94
8GG'/	8G'\	.
8r	8r	.
8r	8r	.
8EE-'/	8E-'\	.
8r	8r	.
8r	8r	.
=95	=95	=95
8CC'/	8C'/	.
8r	8r	.
8r	8r	.
4r	4r	.
8r	8r	.
=96	=96	=96
8GGG'/	8BBn'\ 8F'\ 8G'\	ppp
8r	8r	.
8r	8r	.
4r	4r	.
8r	8r	.
=97	=97	=97
8CCC'/	8C'\ 8E-'\ 8G'\ 8c'\	.
8r	8r	.
8r	8r	.
4r	4r	.
8r	8r	.
==	==	==
*-	*-	*-
!!!ENC: Craig Stuart Sapp
!!!END: 2004/09/02/
